images/logo-footer.svg

<svg width="145" height="36" viewBox="0 0 145 36" fill="none" xmlns="http://www.w3.org/2000/svg">
<path d="M27.2187 0V35.3H19.6135V32.9C17.9123 34.8 15.5107 36 12.1083 36C5.50379 36 0 30.2 0 22.7C0 15.2 5.50379 9.4 12.1083 9.4C15.5107 9.4 18.0124 10.6 19.6135 12.5V0H27.2187ZM19.6135 22.7C19.6135 18.9 17.1118 16.5 13.6094 16.5C10.107 16.5 7.60523 18.9 7.60523 22.7C7.60523 26.5 10.107 28.9 13.6094 28.9C17.1118 28.8 19.6135 26.5 19.6135 22.7Z" fill="#FFC700"/>
<path d="M43.7303 29.2C45.8318 29.2 47.5329 28.4 48.5336 27.3L54.6378 30.8C52.1361 34.2 48.4336 36 43.6302 36C35.0243 36 29.6206 30.2 29.6206 22.7C29.6206 15.2 35.0243 9.40002 43.0298 9.40002C50.4349 9.40002 55.8386 15.1 55.8386 22.7C55.8386 23.8 55.7386 24.8 55.5384 25.7H37.6261C38.6268 28.3 40.9284 29.2 43.7303 29.2ZM48.3335 20.1C47.5329 17.2 45.2314 16.1 42.9298 16.1C40.0278 16.1 38.1265 17.5 37.426 20.1H48.3335Z" fill="#FFC700"/>
<path d="M82.1565 10.1L72.8501 35.3H64.2441L54.9377 10.1H63.3435L68.6472 26.1L73.9508 10.1C73.9508 10.1 82.1565 10.1 82.1565 10.1Z" fill="#FFC700"/>
<path d="M83.4573 10.1H91.0625V35.3H83.4573V10.1Z" fill="#FFC700"/>
<path d="M93.6646 22.7C93.6646 15.2 99.3685 9.40002 107.074 9.40002C111.977 9.40002 116.28 12 118.482 15.9L111.877 19.7C110.976 17.9 109.175 16.9 106.974 16.9C103.671 16.9 101.27 19.3 101.27 22.7C101.27 26.2 103.671 28.5 106.974 28.5C109.175 28.5 111.077 27.4 111.877 25.7L118.482 29.5C116.38 33.4 112.077 36 107.074 36C99.3685 36 93.6646 30.2 93.6646 22.7Z" fill="#FFC700"/>
<path d="M132.892 29.2C134.993 29.2 136.694 28.4 137.695 27.3L143.799 30.8C141.297 34.2 137.595 36 132.792 36C124.186 36 118.782 30.2 118.782 22.7C118.782 15.2 124.286 9.40002 132.191 9.40002C139.596 9.40002 145 15.1 145 22.7C145 23.8 144.9 24.8 144.7 25.7H126.787C127.788 28.3 130.09 29.2 132.892 29.2ZM137.595 20.1C136.794 17.2 134.493 16.1 132.191 16.1C129.289 16.1 127.388 17.5 126.687 20.1H137.595Z" fill="#FFC700"/>
<path d="M83.4573 0V10.1L91.0625 0H83.4573Z" fill="#FFC700"/>
</svg>

<svg width="145" height="36" viewBox="0 0 145 36" fill="none" xmlns="http://www.w3.org/2000/svg"><path d="M27.22 0v35.3h-7.6v-2.4c-1.7 1.9-4.1 3.1-7.51 3.1C5.5 36 0 30.2 0 22.7 0 15.2 5.5 9.4 12.1 9.4c3.41 0 5.91 1.2 7.51 3.1V0h7.6Zm-7.6 22.7c0-3.8-2.5-6.2-6.01-6.2-3.5 0-6 2.4-6 6.2 0 3.8 2.5 6.2 6 6.2 3.5-.1 6-2.4 6-6.2ZM43.73 29.2c2.1 0 3.8-.8 4.8-1.9l6.1 3.5c-2.5 3.4-6.2 5.2-11 5.2-8.6 0-14.01-5.8-14.01-13.3 0-7.5 5.4-13.3 13.41-13.3 7.4 0 12.8 5.7 12.8 13.3 0 1.1-.1 2.1-.3 3h-17.9c1 2.6 3.3 3.5 6.1 3.5Zm4.6-9.1c-.8-2.9-3.1-4-5.4-4-2.9 0-4.8 1.4-5.5 4h10.9ZM82.16 10.1l-9.31 25.2h-8.6l-9.31-25.2h8.4l5.3 16 5.31-16h8.2ZM83.46 10.1h7.6v25.2h-7.6V10.1ZM93.66 22.7c0-7.5 5.7-13.3 13.41-13.3 4.9 0 9.21 2.6 11.41 6.5l-6.6 3.8c-.9-1.8-2.7-2.8-4.9-2.8-3.3 0-5.71 2.4-5.71 5.8 0 3.5 2.4 5.8 5.7 5.8 2.2 0 4.1-1.1 4.9-2.8l6.61 3.8c-2.1 3.9-6.4 6.5-11.4 6.5-7.71 0-13.42-5.8-13.42-13.3ZM132.9 29.2c2.1 0 3.8-.8 4.8-1.9l6.1 3.5c-2.5 3.4-6.2 5.2-11 5.2-8.61 0-14.02-5.8-14.02-13.3 0-7.5 5.5-13.3 13.41-13.3 7.4 0 12.81 5.7 12.81 13.3 0 1.1-.1 2.1-.3 3h-17.91c1 2.6 3.3 3.5 6.1 3.5Zm4.7-9.1c-.8-2.9-3.1-4-5.4-4-2.91 0-4.81 1.4-5.51 4h10.9ZM83.46 0v10.1L91.06 0h-7.6Z" fill="#FFC700"/></svg>
